X:1
T:Title
%%score { 1 | 2 }
L:1/8
Q:1/4=94
M:4/4
K:F
V:1 treble nm="Grand Piano"
V:2 bass 
V:1
 A>G F2 c>A F2 | [CFA]2 [CFc]2 [EG]4 | [GB]>[FA] [EG]2 [Fc]>[GB] A2 | G2 d2 [Ec]4 | %4
w: C.~R.~L.~Vawter * * * * *||||
 A>_A =A>[GB] [Ac]2 [FA]2 |[M:9/8] [CG]>[FA][FB]- [FB]/[Fc]/ [Fe]2 [Fd]3 | %6
w: ||
[M:4/4] [EG]>[FA] [GB]>[Ac] [Be]>[Bd] [CAc]>[B,EG] | [DEB]2 [CEA]2 [A,F]4 | [CEG]2 [CGB]2 A2 c2 | %9
w: |||
 d2 e>d [Ec]4 | [GB]2 G2 c2 A2 | G2 d2 [Ec]4 | A>_A =A>[GB] [Ac]2 [FA]2 | %13
w: ||||
[M:9/8] [CG]>[FA][FB]- [FB]/[Fc]/ [Fe]2 [Fd]3 |[M:4/4] [EG]>[FA] [GB]>[Ac] [Be]>[Bd] [CAc]>[B,EG] | %15
w: ||
 [DEB]2 [CEA]2 [A,F]4 |] %16
w: |
V:2
 [F,CF]>[F,B,C] [F,A,C]2 [F,A,F]>[F,A,F] [F,A,C]2 | D,2 A,,2 [C,C]4 | %2
 [C,C]>[C,C] [C,B,]2 [D,A,]>[E,C][K:treble] [F,CF]2 | [G,CE]2 [G,=B,F]2[K:bass] [C,C]4 | %4
 [F,CF]>[F,=B,F] [F,CF]>[F,C] [F,F]2 [F,C]2 | %5
[M:9/8] [E,B,]>[_E,C][D,B,]- [D,B,]/[C,A,]/ [B,,C]2 [B,,B,]3 | %6
[M:4/4] [C,B,]>[C,A,] [C,G,]>[C,F,] [C,E,]>[C,G,] C,>C, | C,2 C,2 F,4 | %8
 C,2 E,2[K:treble] [F,CF]2 [A,CF]2 | [G,=B,F]2 [G,B,G]>[G,B,F][K:bass] [C,C]4 | %10
 [C,C]2 [E,B,]2 [F,A,F]2 [F,CF]2 | [G,CE]2 [G,=B,F]2[K:bass] [C,C]4 | %12
 [F,CF]>[F,=B,F] [F,CF]>[F,C] [F,F]2 [F,C]2 | %13
[M:9/8] [E,B,]>[_E,C][D,B,]- [D,B,]/[C,B,]/ [B,,C]2 [B,,B,]3 | %14
[M:4/4] [C,B,]>[C,A,] [C,G,]>[C,F,] [C,E,]>[C,G,] C,>C, | C,2 C,2 F,4 |] %16

